Yaru++/actions/16/object-order-front.svg

<svg viewBox="0 0 16 16" xmlns="http://www.w3.org/2000/svg"><path d="m2 2v1h12v-1zm5 2v1h7v-1zm-2.4980469.0019531-.1894531.21875-2.3125 2.5.65625.6875 1.34375-1.4375v8.0292969h1.0019531v-8.0292969l1.34375 1.4375.65625-.6875-2.3125-2.5zm4.4980469 1.9980469v1h5v-1zm-1 2v1h6v-1zm1 2v1h5v-1zm-2 2v1h7v-1z" fill="#808080"/></svg>

<svg xmlns="http://www.w3.org/2000/svg" viewBox="0 0 16 16">
 <path fill="#808080" d="M 2 2 L 2 3 L 14 3 L 14 2 L 2 2 z M 7 4 L 7 5 L 14 5 L 14 4 L 7 4 z M 4.5019531 4.0019531 L 4.3125 4.2207031 L 2 6.7207031 L 2.65625 7.4082031 L 4 5.9707031 L 4 14 L 5.0019531 14 L 5.0019531 5.9707031 L 6.3457031 7.4082031 L 7.0019531 6.7207031 L 4.6894531 4.2207031 L 4.5019531 4.0019531 z M 9 6 L 9 7 L 14 7 L 14 6 L 9 6 z M 8 8 L 8 9 L 14 9 L 14 8 L 8 8 z M 9 10 L 9 11 L 14 11 L 14 10 L 9 10 z M 7 12 L 7 13 L 14 13 L 14 12 L 7 12 z"/>
</svg>
